icons/lines/calendar-one.svg

<svg xmlns="http://www.w3.org/2000/svg" width="24" height="24" viewBox="0 0 24 24" fill="none" stroke="currentColor" stroke-width="2" stroke-linecap="round" stroke-linejoin="round">
  <path d="M12 11.09c-.52 0-.9-.31-.9-.8 0-.5.38-.79.9-.79s.9.29.9.79c0 .49-.38.8-.9.8" />
  <path d="M12 14c-.66 0-1.14-.33-1.14-.93s.48-.92 1.14-.92 1.14.33 1.14.92c0 .6-.48.93-1.14.93" />
  <path d="M12 8.25c-1.23 0-2.27.67-2.27 1.97a1.63 1.63 0 0 0 .73 1.39c-.61.36-.96.94-.96 1.62 0 1.24.95 2.01 2.5 2.01 1.54 0 2.5-.77 2.5-2.01a1.83 1.83 0 0 0-.97-1.62 1.62 1.62 0 0 0 .73-1.39c0-1.3-1.03-1.97-2.26-1.97" />
  <path d="M16 2v3" />
  <path d="M16 3.5c3.33.18 5 1.45 5 6.15v6.18c0 4.12-1 6.18-6 6.18H9c-5 0-6-2.06-6-6.18V9.65c0-4.7 1.67-5.96 5-6.15z" />
  <path d="M20.75 17.6H3.25" />
  <path d="M8 2v3" />
</svg>

<svg xmlns="http://www.w3.org/2000/svg" width="24" height="24" viewBox="0 0 24 24" fill="none" stroke="currentColor" stroke-width="2" stroke-linecap="round" stroke-linejoin="round" >
  <path d="M8 2V5" stroke-miterlimit="10"/>
  <path d="M16 2V5" stroke-miterlimit="10"/>
  <path d="M16 3.5C19.33 3.68 21 4.95 21 9.65V15.83C21 19.95 20 22.01 15 22.01H9C4 22.01 3 19.95 3 15.83V9.65C3 4.95 4.67 3.69 8 3.5H16Z" stroke-miterlimit="10"/>
  <path d="M20.75 17.6H3.25" stroke-miterlimit="10"/>
  <path d="M12 8.25C10.77 8.25 9.73 8.92 9.73 10.22C9.73 10.84 10.02 11.31 10.46 11.61C9.85 11.97 9.5 12.55 9.5 13.23C9.5 14.47 10.45 15.24 12 15.24C13.54 15.24 14.5 14.47 14.5 13.23C14.5 12.55 14.15 11.96 13.53 11.61C13.98 11.3 14.26 10.84 14.26 10.22C14.26 8.92 13.23 8.25 12 8.25ZM12 11.09C11.48 11.09 11.1 10.78 11.1 10.29C11.1 9.79 11.48 9.5 12 9.5C12.52 9.5 12.9 9.79 12.9 10.29C12.9 10.78 12.52 11.09 12 11.09ZM12 14C11.34 14 10.86 13.67 10.86 13.07C10.86 12.47 11.34 12.15 12 12.15C12.66 12.15 13.14 12.48 13.14 13.07C13.14 13.67 12.66 14 12 14Z"/>
  </svg>
